X:40
T: Lads of Lexington
C: BB
R: reel
Q: 1/8=350
M: 4/4
L: 1/8
K: Ador
"Am"EA (3ABA cdea|"Am"cdea "G"gdBG|"Am"EA (3ABA cdea|"G"gedB GBdB|
"Am"EA (3ABA cdea|"Em"gede "G"g3 f|"Am"ea (3a^ga ba=ge|"G"dBgB "Am"cA A2 :|
"A"^cdef "G"gfed|"A"A^c (3cBc Ac (3cBc|"A"^cded "F#m"cBAF|"G"GB (3BAB GB (3BAB |
"A"A2 ^ce "G"gfed|"A"^ceae "G"g3 a|"A"ae (3efe"D"fd (3d^cd|"G"B^cdB "A"cA A2 :|
